!!!!SEGMENT: 028_1-12-1a-C-008.krn
!!!COM: Chopin, Fryderyk
!!!OTL: Prelude no. 8
!!!OPS: Op. 28
!!!PTL: 24 | PRÉLUDES | POUR | le Piano
!!!PPR: Catelin
!!!PPP: Paris
!!!NIFC-rismID: 1001065072
!!!NIFC-shelfmark: PL-Wbfc 6583/n
!!!OMD: Molto agitato.
**kern	**kern	**dynam
*part1	*part1	*part1
*staff2	*staff1	*S
*clefF4	*clefG2	*
*k[f#c#g#]	*k[f#c#g#]	*
*f#:	*f#:	*
*I"VIII.	*	*
*M4/4	*M4/4	*
*met(c)	*met(c)	*
*MM108	*MM108	*
=1	=1	=1
*	*^	*
*ped	*	*	*
!LO:TUP:a	!	!	!
!LO:TX:t=P:note-head-side tuplet number:problem	!	!	!
(>24A^<LL	(>32c#LLL	8.c#L	.
*	*cue	*	*
.	32cc#	.	.
24C#	.	.	.
.	32g#	.	.
24F#J	.	.	.
.	32b	.	.
8FF#J)	32a	.	.
.	32f#	.	.
*	*Xcue	*	*
*Xped	*	*	*
.	32d	16dJk	.
*	*cue	*	*
.	32ddJJJ	.	.
*	*Xcue	*	*
*ped	*	*	*
!LO:TUP:a	!	!	!
!LO:TX:t=P:note-head-side tuplet number:problem	!	!	!
(>24A^<LL	32c#LLL	8.c#L	.
*	*cue	*	*
.	32cc#	.	.
24C#	.	.	.
.	32g#	.	.
24F#J	.	.	.
.	32b	.	.
8AAJ)	32a	.	.
*Xped	*	*	*
.	32g#	.	.
*	*Xcue	*	*
.	32f#	16f#Jk	.
*	*cue	*	*
.	32ff#JJJ	.	.
*	*Xcue	*	*
*ped	*	*	*
!LO:TUP:a	!	!	!
!LO:TX:t=P:note-head-side tuplet number:problem	!	!	!
(>24d^<LL	32f#LLL	8.f#L	.
*	*cue	*	*
.	32ff#	.	.
24G#	.	.	.
.	32a#X	.	.
24BJ	.	.	.
.	32cc#	.	.
8DJ)	32b	.	.
*Xped	*	*	*
.	32g#	.	.
*	*Xcue	*	*
.	32e#X	16e#XJk	.
*	*cue	*	*
.	32eeJJJ	.	.
*	*Xcue	*	*
*ped	*	*	*
!LO:TUP:a	!	!	!
!LO:TX:t=P:note-head-side tuplet number:problem	!	!	!
(>24c#^<LL	32anLLL	8.anL	.
*	*cue	*	*
.	32aa	.	.
24E#X	.	.	.
.	32b#X	.	.
24BJ	.	.	.
.	32dd	.	.
8C#J)	32cc#	.	.
.	32bn	.	.
*	*Xcue	*	*
*Xped	*	*	*
.	32g#	16g#Jk	.
*	*cue	*	*
.	32gg#JJJ)	.	.
*	*Xcue	*	*
!!LO:LB:g=original
=2	=2	=2	=2
*Xtuplet	*	*	*
*ped	*	*	*
(>24ALL	(>32c#LLL	8.c#L	.
*	*cue	*	*
.	32cc#	.	.
24C#	.	.	.
.	32g#	.	.
24F#J	.	.	.
.	32b	.	.
8FF#J)	32a	.	.
.	32f#	.	.
*Xped	*	*	*
*	*Xcue	*	*
.	32d	16dJk	.
*	*cue	*	*
.	32ddJJJ	.	.
*	*Xcue	*	*
*ped	*	*	*
(>24ALL	32c#LLL	8.c#L	.
*	*cue	*	*
.	32cc#	.	.
24C#	.	.	.
.	32g#	.	.
24F#J	.	.	.
.	32b	.	.
8AAJ)	32a	.	.
*Xped	*	*	*
.	32g#	.	.
*	*Xcue	*	*
.	32f#	16f#Jk	.
*	*cue	*	*
.	32ff#JJJ	.	.
*	*Xcue	*	*
*ped	*	*	*
(>24dLL	32f#LLL	8.f#L	.
*	*cue	*	*
.	32ff#	.	.
24G#	.	.	.
.	32a#X	.	.
24BJ	.	.	.
.	32cc#	.	.
8DJ)	32b	.	.
.	32g#	.	.
*Xped	*	*	*
.	.	.	.
*	*Xcue	*	*
.	32e#X	16e#XJk	.
*	*cue	*	*
.	32eeJJJ	.	.
*ped	*	*	*
*	*Xcue	*	*
(>24c#LL	32anLLL	8.anL	.
*	*cue	*	*
.	32aa	.	.
24E#X	.	.	.
.	32b#X	.	.
24BJ	.	.	.
.	32dd	.	.
8C#J)	32cc#	.	.
.	32bn	.	.
*Xped	*	*	*
*	*Xcue	*	*
.	32g#	16g#Jk	.
*	*cue	*	*
.	32gg#JJJ)	.	.
*	*Xcue	*	*
=3	=3	=3	=3
*ped	*	*	*
(>24aLL	(>32cc#LLL	8.cc#L	.
*	*cue	*	*
.	32ccc#	.	.
24d#X	.	.	.
.	32gg#	.	.
24f#J	.	.	.
.	32bb	.	.
8AJ)	32aa	.	.
*Xped	*	*	*
.	32ff#	.	.
*	*Xcue	*	*
.	32dd#X	16dd#XJk	.
*	*cue	*	*
.	32dddJJJ	.	.
*	*Xcue	*	*
*ped	*	*	*
(>24g#LL	32cc#LLL	8.cc#L	.
*	*cue	*	*
.	32ccc#	.	.
24d#	.	.	.
.	32ee#X	.	.
24f#J	.	.	.
.	32gg#	.	.
8G#J)	32ff#	.	.
.	32dd#	.	.
*	*Xcue	*	*
*Xped	*	*	*
.	32b#X	16b#XJk	.
*	*cue	*	*
.	32bbJJJ	.	.
*	*Xcue	*	*
*ped	*	*	*
(>24gnLL	32bnLLL	8.bnL	.
*	*cue	*	*
.	32bb	.	.
24c#	.	.	.
.	32ff#	.	.
24eJ	.	.	.
.	32aa	.	.
8G#J)	32ggn	.	.
.	32een	.	.
*	*Xcue	*	*
*Xped	*	*	*
.	32cc#	16cc#Jk	.
*	*cue	*	*
.	32ccc#JJJ	.	.
*	*Xcue	*	*
*ped	*	*	*
(>24f#LL	32bLLL	8.bL	.
*	*cue	*	*
.	32bb	.	.
24c#	.	.	.
.	32dd#X	.	.
24eJ	.	.	.
.	32ff#	.	.
8F#J)	32ee	.	.
.	32cc#	.	.
*	*Xcue	*	*
*Xped	*	*	*
.	32a#X	16a#XJk	.
*	*cue	*	*
.	32aaJJJ)	.	.
*	*Xcue	*	*
!!LO:LB:g=original
=4	=4	=4	=4
*ped	*	*	*
(>24fnLL	(>32anLLL	8.anL	.
*	*cue	*	*
.	32aa	.	.
24cn	.	.	.
.	32dd	.	.
24e-XJ	.	.	.
.	32ffn	.	.
8FnJ)	32ee-X	.	.
*Xped	*	*	*
.	32ccn	.	.
*	*Xcue	*	*
.	32b	16bJk	.
*	*cue	*	*
.	32bbJJJ	.	.
*	*Xcue	*	*
*ped	*	*	*
(>24fLL	32aLLL	8.aL	.
*	*cue	*	*
.	32aa	.	.
24B	.	.	.
.	32cc#X	.	.
24dJ	.	.	.
.	32een	.	.
8FJ)	32dd	.	.
*Xped	*	*	*
.	32b	.	.
*	*Xcue	*	*
.	32g#	16g#Jk	.
*	*cue	*	*
.	32gg#JJJ	.	.
*	*Xcue	*	*
*ped	*	*	*
(>24dLL	32f#XLLL	8.f#XL	.
*	*cue	*	*
.	32ff	.	.
24G#	.	.	.
.	32a#X	.	.
24BJ	.	.	.
.	32cc#	.	.
8DJ)	32b	.	.
*Xped	*	*	*
.	32g#	.	.
*	*Xcue	*	*
.	32e#X	16e#XJk	.
*	*cue	*	*
.	32eeJJJ	.	.
*	*Xcue	*	*
*ped	*	*	*
(>24BLL	32dLLL	8.dL	.
*	*cue	*	*
.	32dd	.	.
24C#\	.	.	.
.	32f##X	.	.
24E#XJ	.	.	.
.	32an	.	.
8CC#J)	32g#	.	.
.	32e#	.	.
*	*Xcue	*	*
*Xped	*	*	*
.	32c#	16c#Jk	.
*	*cue	*	*
.	32cc#JJJ)	.	.
*	*Xcue	*	*
=5	=5	=5	=5
(>24A\LL	(>32c#LLL	8.c#L	.
*	*cue	*	*
.	32cc#	.	.
24C#	.	.	.
.	32g#	.	.
24F#J	.	.	.
.	32b	.	.
8FF#J)	32a	.	.
.	32f#	.	.
*	*Xcue	*	*
.	32d	16dJk	.
*	*cue	*	*
.	32ddJJJ	.	.
*	*Xcue	*	*
(>24A\LL	32c#LLL	8.c#L	.
*	*cue	*	*
.	32cc#	.	.
24C#	.	.	.
.	32g#	.	.
24F#J	.	.	.
.	32b	.	.
8AAJ)	32a	.	.
.	32g#	.	.
*	*Xcue	*	*
.	32f#	16f#Jk	.
*	*cue	*	*
.	32ff#JJJ	.	.
*	*Xcue	*	*
(>24d\LL	32f#LLL	8.f#L	.
*	*cue	*	*
.	32ff#	.	.
24G#	.	.	.
.	32a#X	.	.
24BJ	.	.	.
.	32cc#	.	.
8DJ)	32b	.	.
.	32g#	.	.
*	*Xcue	*	*
.	32e#X	16e#XJk	.
*	*cue	*	*
.	32eeJJJ	.	.
*	*Xcue	*	*
(>24c#\LL	32anLLL	8.anL	.
*	*cue	*	*
.	32aan	.	.
24E#X	.	.	.
.	32b#X	.	.
24BJ	.	.	.
.	32dd	.	.
8C#J)	32cc#	.	.
.	32bn	.	.
*	*Xcue	*	*
.	32g#	16g#Jk	.
*	*cue	*	*
.	32gg#JJJ)	.	.
*	*Xcue	*	*
!!LO:LB:g=original
=6	=6	=6	=6
(>24ALL	(>32c#LLL	8.c#L	.
*	*cue	*	*
.	32cc#	.	.
24C#	.	.	.
.	32g#	.	.
24F#J	.	.	.
.	32b	.	.
8FF#J)	32a	.	.
.	32f#	.	.
*	*Xcue	*	*
.	32d	16dJk	.
*	*cue	*	*
.	32ddJJJ	.	.
*	*Xcue	*	*
(>24ALL	32c#LLL	8.c#L	.
*	*cue	*	*
.	32cc#	.	.
24C#	.	.	.
.	32g#	.	.
24F#J	.	.	.
.	32b	.	.
8AAJ)	32a	.	.
.	32g#	.	.
*	*Xcue	*	*
.	32f#	16f#Jk	.
*	*cue	*	*
.	32aaJJJ	.	.
*	*Xcue	*	*
(>24fnLL	32aLLL	8.aL	.
*	*cue	*	*
.	32aa	.	.
24B	.	.	.
.	32cc#	.	.
24dJ	.	.	.
.	32ee	.	.
8F#J)	32dd	.	.
.	32b	.	.
*	*Xcue	*	*
.	32g#	16g#Jk	.
*	*cue	*	*
.	32gg#JJJ	.	.
*	*Xcue	*	*
(>24eLL	32cc#LLL	8.cc#L	.
*	*cue	*	*
.	32ccc#	.	.
24G#	.	.	.
.	32dd#X	.	.
24dnJ	.	.	.
.	32ff#	.	.
8EJ)	32ee	.	.
.	32ddn	.	.
*	*Xcue	*	*
.	32b	16bJk	.
*	*cue	*	*
.	32bbJJJ)	.	.
*	*Xcue	*	*
*clefG2	*	*	*
=7	=7	=7	=7
(<24ccnLL	(>32eeLLL	8.eeL	.
*	*cue	*	*
.	32eee	.	.
24f#	.	.	.
.	32bb	.	.
24aJ	.	.	.
.	32ddd	.	.
8c#J)	32cccn	.	.
.	32aa	.	.
*	*Xcue	*	*
.	32ff#	16ff#Jk	.
*	*cue	*	*
.	32fff#JJJ	.	.
*	*Xcue	*	*
(<24bLL	32eeLLL	8.eeL	.
*	*cue	*	*
.	32eee	.	.
24f#	.	.	.
.	32gg#	.	.
24aJ	.	.	.
.	32bb	.	.
8BJ)	32aa	.	.
.	32ff#	.	.
*	*Xcue	*	*
.	32dd#X	16dd#XJk	.
*	*cue	*	*
.	32dddJJJ)	.	.
*	*Xcue	*	*
(<24b-XLL	(>32ddnLLL	8.ddnL	.
*	*cue	*	*
.	32ddd	.	.
24fn	.	.	.
.	32ggn	.	.
24a-XJ	.	.	.
.	32bb-X	.	.
8BJ)	32aa-X	.	.
.	32ffn	.	.
*	*Xcue	*	*
.	32ee	16eeJk	.
*	*cue	*	*
.	32eeeJJJ	.	.
*	*Xcue	*	*
(<24a-LL	32ddLLL	8.ddL	.
*	*cue	*	*
.	32ddd	.	.
24e	.	.	.
.	32ff#X	.	.
24gnJ	.	.	.
.	32aan	.	.
8AJ)	32gg	.	.
.	32ee	.	.
*	*Xcue	*	*
.	32cc#	16cc#Jk	.
*	*cue	*	*
.	32cccJJJ)	.	.
*	*Xcue	*	*
!!LO:LB:g=original
=8	=8	=8	=8
*	*cue	*	*
(24a-XLL	(>32ccnLLL	8.ccnL	.
.	32ccc#	.	.
24e-X	.	.	.
.	32ffn	.	.
24g-XJ	.	.	.
.	32aa-X	.	.
8A-XJ)	32gg-X	.	.
.	32ee-X	.	.
*	*Xcue	*	*
.	32dd	16ddJk	.
*	*cue	*	*
.	32dddJJJ)	.	.
*	*Xcue	*	*
(24gnLL	(>32ccLLL	8.ccL	.
*	*cue	*	*
.	32ccc#	.	.
24d	.	.	.
.	32een	.	.
24fnJ	.	.	.
.	32ggn	.	.
8G#J)	32ffn	.	.
.	32dd	.	.
*	*Xcue	*	*
.	32b	16bJk	.
*	*cue	*	*
.	32bbJJJ)	.	.
*	*Xcue	*	*
(24gnLL	(>32cc-XLLL	8.cc-XL	.
*	*cue	*	*
.	32ccc#	.	.
24d-X	.	.	.
.	32ee-X	.	.
24f-XJ	.	.	.
.	32gg-X	.	.
8G#J)	32ff-X	.	.
.	32dd-X	.	.
*	*Xcue	*	*
.	32b-X	16b-XJk	.
*	*cue	*	*
.	32bbJJJ	.	.
*	*Xcue	*	*
(24g-XLL	32b-LLL	8.b-L	.
*	*cue	*	*
.	32bb	.	.
24d-	.	.	.
.	32ee-	.	.
24f-J	.	.	.
.	32gg-	.	.
8G#J)	32ff-	.	.
.	32dd-	.	.
*	*Xcue	*	*
.	32b-	16b-Jk	.
*	*cue	*	*
.	32bbJJJ)	.	.
*	*Xcue	*	*
*clefF4	*	*	*
=9	=9	=9	=9
(>24fnLL	(>32b-XLLL	8.b-XL	.
*	*cue	*	*
.	32bb	.	.
24B-X	.	.	.
.	32een	.	.
24dJ	.	.	.
.	32ggn	.	.
8F#J)	32ffn	.	.
!	!LO:TX:b:t=cres _:problem:dynamics with extention lines 	!	!
!	!	!	!LO:HP:i:b:t=cres
.	32ddn	.	<
*	*Xcue	*	*
.	32a	16aJk	.
*	*cue	*	*
.	32aaJJJ	.	.
*	*Xcue	*	*
(>24fLL	32b--LLL	8.b--L	.
*	*cue	*	*
.	32bb	.	.
24Bn	.	.	.
.	32dd-X	.	.
24dJ	.	.	.
.	32ff-X	.	.
8F#J)	32ee--	.	.
.	32cc-X	.	.
*	*Xcue	*	*
.	32a-X	16a-XJk	.
*	*cue	*	*
.	32aaJJJ	.	.
*	*Xcue	*	*
(>24fLL	32a-LLL	8.a-L	.
*	*cue	*	*
.	32aa	.	.
24G#	.	.	.
.	32cc#X	.	.
24BJ	.	.	.
.	32ee-X	.	.
8F#J)	32ddn	.	.
.	32bn	.	.
*	*Xcue	*	*
.	32gn	16gnJk	.
*	*cue	*	*
.	32ggJJJ	.	.
*	*Xcue	*	*
(>24e-XLL	32gLLL	8.gL	.
*	*cue	*	*
.	32gg	.	.
24Gn	.	.	.
.	32dd	.	.
24cnJ	.	.	.
.	32ffn	.	.
8F#J)	32ee-	.	.
.	32dd	.	.
*	*Xcue	*	*
.	32ccn	16ccnJk	.
*	*cue	*	*
.	32ccc#JJJ)	.	.
*	*Xcue	*	*
!!LO:LB:g=original
=10	=10	=10	=10
(>24gnLL	(>32ccnLLL	8.ccnL	.
*	*cue	*	*
.	32ccc#	.	.
24cn	.	.	.
.	32ff#	.	.
24e-XJ	.	.	.
.	32aa-X	.	.
8FnJ)	32ggn	.	.
.	32ee-X	.	.
*	*Xcue	*	*
.	32bn	16bnJk	.
*	*cue	*	*
.	32bbJJJ	.	.
*	*Xcue	*	*
(>24gLL	32cc-XLLL	8.cc-XL	.
*	*cue	*	*
.	32ccc#	.	.
24d-X	.	.	.
.	32ee-	.	.
24enJ	.	.	.
.	32ff#	.	.
8FJ)	32een	.	.
.	32dd-X	.	.
*	*Xcue	*	*
.	32b-X	16b-XJk	.
*	*cue	*	*
.	32bbJJJ	.	.
*	*Xcue	*	*
(>24gLL	32b-LLL	8.b-L	.
*	*cue	*	*
.	32bb	.	.
24A	.	.	.
.	32dd#X	.	.
24c#XJ	.	.	.
.	32ffn	.	.
8FJ)	32een	.	.
.	32cc#	.	.
*	*Xcue	*	*
.	32an	16anJk	.
*	*cue	*	*
.	32aa-JJJ	.	.
*	*Xcue	*	*
(>24fnLL	32aLLL	8.aL	.
*	*cue	*	*
.	32aa-	.	.
24A	.	.	.
.	32ee	.	.
24d-J	.	.	.
.	32ggn	.	.
8FJ)	32ff	.	.
.	32ee	.	.
*	*Xcue	*	*
.	32dd#	16dd#Jk	.
*	*cue	*	*
.	32dddJJJ)	.	.
*	*Xcue	*	*
=11	=11	=11	=11
(>24fnLL	(>32ddLLL	8.ddL	.
*	*cue	*	*
.	32ddd	.	.
24A	.	.	.
.	32een	.	.
24e-XJ	.	.	.
.	32gg	.	.
8F#J)	32ffn	.	.
.	32ee-X	.	.
*	*Xcue	*	*
.	32ccn	16ccnJk	.
*	*cue	*	*
.	32ccc#JJJ)	.	.
*	*Xcue	*	*
(>24dLL	(>32ccLLL	8.ccL	.
*	*cue	*	*
.	32ccc#	.	.
24Fn	.	.	.
.	32een	.	.
24B-XJ	.	.	.
.	32gg	.	.
8BBJ)	32ff	.	.
.	32dd	.	.
*	*Xcue	*	*
.	32b-X	16b-XJk	.
*	*cue	*	*
.	32bbJJJ)	.	.
*	*Xcue	*	*
(>24dLL	(>32b-LLL	8.b-L	.
*	*cue	*	*
.	32bb	.	.
24F#X	.	.	.
.	32cc#X	.	.
24cnJ	.	.	.
.	32ee-X	.	.
8DJ)	32dd	.	.
.	32ccn	.	.
*	*Xcue	*	*
.	32a	16aJk	.
*	*cue	*	*
.	32aaJJJ)	.	.
*	*Xcue	*	*
(>24B-LL	(>32aLLL	8.aL	.
*	*cue	*	*
.	32aa	.	.
24D	.	.	.
.	32cc#X	.	.
24GnJ	.	.	.
.	32ee-	.	.
8GG#J)	32dd	.	.
.	32b-	.	.
*	*Xcue	*	*
.	32gn	16gnJk	.
*	*cue	*	*
.	32ggJJJ)	.	.
*	*Xcue	*	*
!!LO:PB:g=original
=12	=12	=12	=12
(>24B-XLL	(>32gnLLL	8.gnL	.
*	*cue	*	*
.	32gg#	.	.
24D	.	.	.
.	32an	.	.
24A-XJ	.	.	.
.	32ccn	.	.
8BBJ)	32b-X	.	.
.	32a-X	.	.
*	*Xcue	*	*
.	32fn	16fnJk	.
*	*cue	*	*
.	32ff#JJJ	.	.
*	*Xcue	*	*
(>24B-LL	32eLLL	8.eL	.
*	*cue	*	*
.	32ee	.	.
24D	.	.	.
.	32an	.	.
24A-J	.	.	.
.	32cc	.	.
8BBJ)	32b-	.	.
.	32a-X	.	.
*	*Xcue	*	*
.	32f	16fJk	.
*	*cue	*	*
.	32ff#JJJ)	.	.
*	*Xcue	*	*
(>24A-\LL	(>32fLLL	8.fL	[
*	*cue	*	*
.	32ff#	.	<
24BB	.	.	.
.	32an	.	.
24DJ	.	.	.
.	32cc-X	.	.
8EE-XJ)	32b-	.	.
.	32a-X	.	.
*	*Xcue	*	*
.	32f	16fJk	.
*	*cue	*	*
.	32ff#JJJ)	.	.
*	*Xcue	*	*
(>24G-X\LL	(>32g-XLLL	8.g-XL	.
*	*cue	*	*
.	32gg#	.	.
24BB	.	.	.
.	32dd	.	.
24EJ	.	.	.
.	32ff	.	.
8EE-J)	32ee-X	.	.
.	32b-	.	.
*	*Xcue	*	*
.	32g-	16g-Jk	.
*	*cue	*	*
.	32gg#JJJ)	.	[
*	*Xcue	*	*
=13	=13	=13	=13
!	!	!	!LO:DY:rj
(>24A-XLL	(>32g-XLLL	8.g-XL	f
*	*cue	*	*
.	32gg#	.	.
24AA-X\	.	.	.
.	32gn	.	.
24D-XJ	.	.	.
.	32b-X	.	.
8FF-XJ)	32a-X	.	.
.	32g-X	.	.
*	*Xcue	*	*
.	32f-X	16f-XJk	.
*	*cue	*	*
.	32ff#JJJ	.	.
*	*Xcue	*	*
(>24A-LL	32f-LLL	8.f-L	.
*	*cue	*	*
.	32ff#	.	.
24AA-\	.	.	.
.	32gn	.	.
24D-J	.	.	.
.	32b-	.	.
8FF-J)	32a-	.	.
.	32f-	.	.
*	*Xcue	*	*
.	32A-X	16A-XJk	.
*	*cue	*	*
.	32a-JJJ)	.	.
*	*Xcue	*	*
(>24G-XLL	(>32c-XLLL	8.c-XL	.
*	*cue	*	*
.	32cc#	.	.
24C-X\	.	.	.
.	32fn	.	.
24E-XJ	.	.	.
.	32a-	.	.
8GG#J)	32g-X	.	.
.	32e	.	.
*	*Xcue	*	*
.	32c-	16c-Jk	.
*	*cue	*	*
.	32cc#JJJ	.	.
*	*Xcue	*	*
(>24G-LL	32BLLL	8.BL	.
*	*cue	*	*
.	32b-	.	.
24C-\	.	.	.
.	32f	.	.
24E-J	.	.	.
.	32a-	.	.
8GG#J)	32g-	.	.
.	32e	.	.
*	*Xcue	*	*
.	32c-	16c-Jk	.
*	*cue	*	*
.	32cc#JJJ)	.	.
*	*Xcue	*	*
!!LO:LB:g=original
=14	=14	=14	=14
(>24G-X\LL	(>32cnLLL	8.cnL	.
*	*cue	*	*
.	32cc#	.	.
24BB-X	.	.	.
.	32fn	.	.
24F-XJ	.	.	.
.	32a-X	.	.
8GG#J)	32g-X	.	.
.	32f-X	.	.
*	*Xcue	*	*
.	32c	16cJk	.
*	*cue	*	*
.	32cc#JJJ	.	.
*	*Xcue	*	*
(>24G-\LL	32d-XLLL	8.d-XL	.
*	*cue	*	*
.	32dd	.	.
24BB-	.	.	.
.	32fn	.	.
24F-J	.	.	.
.	32a-	.	.
8GG#J)	32g-	.	.
.	32f-X	.	.
*	*Xcue	*	*
.	32dn	16dnJk	.
*	*cue	*	*
.	32ddJJJ	.	.
*	*Xcue	*	*
(<24F-X/LL	32dLLL	8.dL	.
*	*cue	*	*
.	32dd	.	.
24GG-	.	.	.
.	32fn	.	.
24BB-J	.	.	.
.	32a-	.	<
8CC-XJ)	32g-	.	.
.	32f-X	.	.
*	*Xcue	*	*
.	32d	16dJk	.
*	*cue	*	*
.	32ddJJJ	.	.
*	*Xcue	*	*
(<24E-X/LL	32e-XLLL	8.e-XL	.
*	*cue	*	*
.	32ee	.	.
24GG-	.	.	.
.	32b-X	.	.
24C-XJ	.	.	.
.	32dd-X	.	.
8CC-J)	32cc-X	.	.
.	32g-X	.	.
*	*Xcue	*	*
.	32e-	16e-Jk	.
*	*cue	*	*
.	32eeJJJ)	.	[
*	*Xcue	*	*
=15	=15	=15	=15
!	!	!	!LO:DY:rj
(>24A-X\LL	(>32e-XLLL	8.e-XL	ff
*	*cue	*	*
.	32ee	.	.
24C-X	.	.	.
.	32a-X	.	.
24E-XJ	.	.	.
.	32dd-X	.	.
8FFnJ)	32cc-X	.	.
.	32a-	.	.
*	*Xcue	*	*
.	32e-	16e-Jk	.
*	*cue	*	*
.	32eeJJJ	.	.
*	*Xcue	*	*
(>24A-\LL	32dnLLL	8.dnL	.
*	*cue	*	*
.	32dd-	.	.
24C-	.	.	.
.	32a-	.	.
24E-J	.	.	.
.	32dd-X	.	.
8FFJ)	32cc-	.	.
.	32a-	.	.
*	*Xcue	*	*
.	32e-	16e-Jk	.
*	*cue	*	*
.	32eeJJJ	.	.
*	*Xcue	*	*
(>24dn\LL	32fnLLL	8.fnL	.
*	*cue	*	*
.	32ff#	.	.
24F#	.	.	.
.	32b-X	.	.
24B-XJ	.	.	.
.	32ee-X	.	.
8BBJ)	32ddn	.	.
.	32b-	.	.
*	*Xcue	*	*
.	32f	16fJk	.
*	*cue	*	*
.	32ff#JJJ	.	.
*	*Xcue	*	*
(>24d\LL	32g-XLLL	8.g-XL	.
*	*cue	*	*
.	32gg#	.	.
24F#	.	.	.
.	32b-	.	.
24B-J	.	.	.
.	32ee-	.	.
8BBJ)	32dd	.	.
.	32b-	.	.
*	*Xcue	*	*
.	32f	16fJk	.
*	*cue	*	*
.	32ff#JJJ)	.	.
*	*Xcue	*	*
!!LO:LB:g=original
=16	=16	=16	=16
(>24A-X\LL	(>32e-XLLL	8.e-XL	.
*	*cue	*	*
.	32ee	.	.
24C-X	.	.	.
.	32a-X	.	.
24E-XJ	.	.	.
.	32dd-X	.	.
8FFnJ)	32cc-X	.	.
.	32a-	.	.
*	*Xcue	*	*
.	32e-	16e-Jk	.
*	*cue	*	*
.	32eeJJJ	.	.
*	*Xcue	*	*
(>24A-\LL	32dnLLL	8.dnL	.
*	*cue	*	*
.	32dd-	.	.
24C-	.	.	.
.	32a-	.	.
24E-J	.	.	.
.	32dd-X	.	.
8FFJ)	32cc-	.	.
.	32a-	.	.
*	*Xcue	*	*
.	32e-	16e-Jk	.
*	*cue	*	*
.	32eeJJJ	.	.
*	*Xcue	*	*
(>24dn\LL	32fnLLL	8.fnL	.
*	*cue	*	*
.	32ff#	.	.
24F#	.	.	.
.	32b-X	.	.
24B-XJ	.	.	.
.	32ee-	.	.
8BBJ)	32ddn	.	.
.	32b-	.	.
*	*Xcue	*	*
.	32f	16fJk	.
*	*cue	*	*
.	32ff#JJJ	.	.
*	*Xcue	*	*
(>24d\LL	32b-LLL	8.b-L	.
*	*cue	*	*
.	32bb	.	.
24F#	.	.	.
.	32een	.	.
24B-J	.	.	.
.	32gg-X	.	.
8BBJ)	32ff#	.	.
.	32dd	.	.
*	*Xcue	*	*
.	32b-	16b-Jk	.
*	*cue	*	*
.	32bbJJJ)	.	.
*	*Xcue	*	*
=17	=17	=17	=17
!	!	!	!LO:DY:rj
(>24A-X\LL	(>32e-XLLL	8.e-XL	p
*	*cue	*	*
.	32ee	.	.
24C-X	.	.	.
.	32a-X	.	.
24E-XJ	.	.	.
.	32dd-X	.	.
8FFnJ)	32cc-X	.	.
.	32a-	.	.
*	*Xcue	*	*
.	32e-	16e-Jk	.
*	*cue	*	*
.	32eeJJJ	.	.
*	*Xcue	*	*
(>24A-\LL	32dnLLL	8.dnL	.
*	*cue	*	*
.	32dd-	.	.
24C-	.	.	.
.	32a-	.	.
24E-J	.	.	.
.	32dd-X	.	.
8FFJ)	32cc-	.	.
.	32a-	.	.
*	*Xcue	*	*
.	32e-	16e-Jk	.
*	*cue	*	*
.	32eeJJJ	.	.
*	*Xcue	*	*
(>24dn\LL	32fnLLL	8.fnL	.
*	*cue	*	*
.	32ff#	.	.
24F#	.	.	.
.	32b-X	.	.
24B-XJ	.	.	.
.	32ee-	.	.
8BBJ)	32ddn	.	.
.	32b-	.	.
*	*Xcue	*	*
.	32f	16fJk	.
*	*cue	*	*
.	32ff#JJJ	.	.
*	*Xcue	*	*
(>24d\LL	32g-XLLL	8.g-XL	.
*	*cue	*	*
.	32gg#	.	.
24F#	.	.	.
.	32b-	.	.
24B-J	.	.	.
.	32ee-	.	.
8BBJ)	32dd	.	.
.	32b-	.	.
*	*Xcue	*	*
.	32f	16fJk	.
*	*cue	*	*
.	32ff#JJJ)	.	.
*	*Xcue	*	*
!!LO:LB:g=original
=18	=18	=18	=18
!	!	!	!LO:DY:rj
(24A-X\LL	(>32e-XLLL	8.e-XL	p
*	*cue	*	*
.	32ee	.	.
24C-X	.	.	.
.	32a-X	.	.
24E-XJ	.	.	.
.	32dd-X	.	.
8FFnJ)	32cc-X	.	.
.	32a-	.	.
*	*Xcue	*	*
.	32e-	16e-Jk	.
*	*cue	*	*
.	32eeJJJ	.	.
*	*Xcue	*	*
(24A-LL	32dnLLL	8.dnL	.
*	*cue	*	*
.	32dd-	.	.
24C-\	.	.	.
.	32a-	.	.
24E-J	.	.	.
.	32dd-X	.	.
8FFJ)	32cc-	.	.
.	32a-	.	.
*	*Xcue	*	*
.	32e-	16e-Jk	.
*	*cue	*	*
.	32eeJJJ	.	.
*	*Xcue	*	*
!!linebreak:original
(24dLL	32fnLLL	8.fnL	.
*	*cue	*	*
!	!LO:TX:a:i:t=poco-ritenuto-molto agitato e stretto.:dur=8e:ext=ud:problem:text with extention lines	!	!
.	32ff#	.	.
24F#	.	.	.
.	32b-X	.	.
24B-XJ	.	.	.
.	32ee-X	.	.
8BBJ)	32ddn	.	.
.	32b-	.	.
*	*Xcue	*	*
.	32f	16fJk	.
*	*cue	*	*
.	32ff#JJJ	.	.
*	*Xcue	*	*
(24BnLL	32e#XLLL	8.e#XL	.
*	*cue	*	*
.	32ee-	.	.
24C#X	.	.	.
.	32b#X	.	.
24E#XJ	.	.	.
.	32ddn	.	.
8GG#J)	32cc#X	.	.
.	32bn	.	.
*	*Xcue	*	*
.	32c#	16c#Jk	.
*	*cue	*	*
.	32cc#JJJ	.	.
*	*Xcue	*	*
=19	=19	=19	=19
(24ALL	32c#LLL	8.c#L	.
*	*cue	*	*
.	32cc#	.	.
24C#	.	.	.
.	32g#	.	.
24F#J	.	.	.
.	32b	.	.
8FF#J)	32a	.	.
.	32f#	.	.
*	*Xcue	*	*
.	32d	16dJk	.
*	*cue	*	*
.	32ddJJJ	.	.
*	*Xcue	*	*
(24ALL	32c#LLL	8.c#L	.
*	*cue	*	*
.	32cc#	.	.
24C#	.	.	.
.	32g#	.	.
24F#J	.	.	.
.	32b	.	.
8AAJ)	32a	.	.
.	32g#	.	.
*	*Xcue	*	*
.	32f#	16f#Jk	.
*	*cue	*	*
.	32ff#JJJ	.	.
*	*Xcue	*	*
(24dLL	32f#LLL	8.f#L	.
*	*cue	*	*
.	32ff#	.	.
24G#	.	.	.
.	32a#X	.	.
24BJ	.	.	.
.	32cc#	.	.
8DJ)	32b	.	.
.	32g#	.	.
*	*Xcue	*	*
.	32e#X	16e#XJk	.
*	*cue	*	*
.	32eeJJJ	.	.
*	*Xcue	*	*
(24c#LL	32anLLL	8.anL	.
*	*cue	*	*
.	32aa	.	.
24E#X	.	.	.
.	32b#X	.	.
24BJ	.	.	.
.	32dd	.	.
8C#J)	32cc#	.	.
.	32b#	.	.
*	*Xcue	*	*
.	32g#	16g#Jk	.
*	*cue	*	*
.	32gg#JJJ)	.	.
*	*Xcue	*	*
!!LO:LB:g=original
=20	=20	=20	=20
(<24A/LL	(>32c#LLL	8.c#L	.
*	*cue	*	*
.	32cc#	.	.
24C#	.	.	.
.	32g#	.	.
24F#J	.	.	.
.	32b	.	.
8FF#J)	32a	.	.
.	32f#	.	.
*	*Xcue	*	*
.	32d	16dJk	.
*	*cue	*	*
.	32ddJJJ	.	.
*	*Xcue	*	*
(<24A/LL	32c#LLL	8.c#L	.
*	*cue	*	*
!	!LO:TX:a:t=cres _:problem:dynamics with extention lines 	!	!
!	!	!	!LO:HP:a:i:t=cres
.	32cc#	.	<
24C#	.	.	.
.	32g#	.	.
24F#J	.	.	.
.	32b	.	.
8AAJ)	32a	.	.
.	32g#	.	.
*	*Xcue	*	*
.	32f#	16f#Jk	.
*	*cue	*	*
.	32aaJJJ	.	.
*	*Xcue	*	*
(>24fn\LL	32aLLL	8.aL	.
*	*cue	*	*
.	32aa	.	.
24B	.	.	.
.	32cc#	.	.
24dJ	.	.	.
.	32ee	.	.
8F#J)	32dd	.	.
.	32b	.	.
*	*Xcue	*	*
.	32g#	16g#Jk	.
*	*cue	*	*
.	32gg#JJJ	.	.
*	*Xcue	*	*
(>24e\LL	32cc#LLL	8.cc#L	.
*	*cue	*	*
.	32ccc#	.	.
24G#	.	.	.
.	32dd#X	.	.
24dnJ	.	.	.
.	32ff#	.	.
8EJ)	32ee	.	.
.	32ddn	.	.
*	*Xcue	*	*
.	32b	16bJk	.
*	*cue	*	*
.	32bbJJJ)	.	.
*	*Xcue	*	*
=21	=21	=21	=21
(>24gnLL	(>32bLLL	8.bL	.
*	*cue	*	*
.	32bb	.	.
24c#	.	.	.
.	32dd#X	.	.
24eJ	.	.	.
.	32ff#	.	.
8G#J)	32ee	.	.
.	32cc#	.	.
*	*Xcue	*	*
.	32a#X	16a#XJk	.
*	*cue	*	*
.	32aaJJJ	.	.
*	*Xcue	*	*
(>24f#LL	32ddnLLL	8.ddnL	.
*	*cue	*	*
.	32ddd	.	.
24A#X	.	.	.
.	32ee#X	.	.
24enJ	.	.	.
.	32ggn	.	.
8F#J)	32ff#	.	.
.	32een	.	.
*	*Xcue	*	*
.	32cc#	16cc#Jk	.
*	*cue	*	*
.	32ccc#JJJ	.	.
*	*Xcue	*	*
!!linebreak:original
(>24aLL	32cc#LLL	8.cc#L	.
*	*cue	*	*
.	32ccc#	.	.
24d#X	.	.	.
.	32ee#X	.	.
24f#J	.	.	.
.	32gg#X	.	.
8A#J)	32ff#	.	.
.	32dd#X	.	.
*	*Xcue	*	*
.	32b#X	16b#XJk	.
*	*cue	*	*
.	32bbJJJ	.	.
*	*Xcue	*	*
*clefG2	*	*	*
(<24b#X/LL	32ee#XLLL	8.ee#XL	.
*	*cue	*	*
.	32eee	.	.
24f#	.	.	.
.	32gg#	.	.
24aJ	.	.	.
.	32bbn	.	.
8B#XJ)	32aa	.	.
.	32gg#	.	.
*	*Xcue	*	*
.	32ff#	16ff#Jk	.
*	*cue	*	*
.	32fff#JJJ)	.	[
*	*Xcue	*	*
!!LO:LB:g=original
=22	=22	=22	=22
*ped	*	*	*
!	!	!	!LO:DY:rj
(<24ff#/LL	(>32gg#LLL	8.gg#L	ff
*	*cue	*	*
.	32ggg#	.	.
24a	.	.	.
.	32ddd	.	.
24ccnJ	.	.	.
.	32fffn	.	.
8e-XJ)	32eee-X	.	.
.	32cccn	.	.
*	*Xcue	*	*
.	32aa	16aaJk	.
*	*cue	*	*
.	32aaaJJJ	.	.
*	*Xcue	*	*
(<24ff#/LL	32gg#LLL	8.gg#L	.
*	*cue	*	*
.	32ggg#	.	.
24a	.	.	.
.	32ddd	.	.
24ccJ	.	.	.
.	32fff	.	.
8e-J)	32eee-	.	.
.	32ccc	.	.
*	*Xcue	*	*
*Xped	*	*	*
.	32aa	16aaJk	.
*	*cue	*	*
.	32aaaJJJ	.	.
*	*Xcue	*	*
*ped	*	*	*
(<24ff#/LL	32gg#LLL	8.gg#L	.
*	*cue	*	*
.	32ggg#	.	.
24a	.	.	.
.	32ccc#X	.	.
24ccnJ	.	.	.
.	32eeen	.	.
8dnJ)	32ddd	.	.
.	32cccn	.	.
*	*Xcue	*	*
.	32aa	16aaJk	.
*	*cue	*	*
.	32aaaJJJ	.	.
*	*Xcue	*	*
(<24ff#LL	32gg#LLL	8.gg#L	.
*	*cue	*	*
.	32ggg#	.	.
24a	.	.	.
.	32ccc#X	.	.
24ccnJ	.	.	.
.	32eee	.	.
8dJ)	32ddd	.	.
.	32cccn	.	.
*	*Xcue	*	*
.	32aa	16aaJk	.
*Xped	*	*	*
*	*cue	*	*
.	32aaaJJJ)	.	.
*	*Xcue	*	*
=23	=23	=23	=23
*ped	*	*	*
(<24ff#LL	(>32aaLLL	8.aaL	>
*	*cue	*	*
.	32aaa	.	.
24a	.	.	.
.	32eee#X	.	.
24cc#J	.	.	.
.	32ggg#	.	.
8c#J)	32fff#	.	.
.	32ccc#	.	.
*	*Xcue	*	*
*Xped	*	*	*
.	32aa	16aaJk	.
*	*cue	*	*
.	32aaaJJJ	.	.
*	*Xcue	*	*
*ped	*	*	*
(<24eeLL	32gg#LLL	8.gg#L	.
*	*cue	*	*
.	32ggg#	.	.
24g#	.	.	.
.	32ddd#X	.	.
24cc#J	.	.	.
.	32fff#	.	.
8c#J)	32eeen	.	.
.	32ccc#	.	.
*	*Xcue	*	*
*Xped	*	*	*
.	32gg#	16gg#Jk	.
*	*cue	*	*
.	32ggg#JJJ	.	.
*	*Xcue	*	*
*ped	*	*	*
(<24cc#LL	32eeLLL	8.eeL	.
*	*cue	*	*
.	32eee	.	.
24e	.	.	.
.	32bb	.	.
24aJ	.	.	.
.	32dddn	.	.
8AJ)	32ccc#	.	.
.	32aa	.	.
*	*Xcue	*	*
*Xped	*	*	*
.	32ee	16eeJk	.
*	*cue	*	*
.	32eeeJJJ	.	.
*	*Xcue	*	*
*ped	*	*	*
(<24aLL	32cc#LLL	8.cc#L	.
*	*cue	*	*
.	32ccc#	.	.
24c#	.	.	.
.	32gg#	.	.
24f#J	.	.	.
.	32bb	.	.
8F#J)	32aa	.	.
.	32ff#	.	.
*	*Xcue	*	*
*Xped	*	*	*
.	32cc#	16cc#Jk	.
*	*cue	*	*
.	32ccc#JJJ)	.	]
*	*Xcue	*	*
*clefF4	*	*	*
!!LO:PB:g=original
=24	=24	=24	=24
*ped	*	*	*
(>24eLL	(>32g#LLL	8.g#L	.
*	*cue	*	*
.	32gg#	.	.
24G#	.	.	.
!	!LO:TX:a:t=dim _:problem:dynamics with extention lines 	!	!
!	!	!	!LO:HP:a:i:t=dim
.	32dd#X	.	>
24c#J	.	.	.
.	32ff#	.	.
8C#J)	32ee	.	.
.	32cc#	.	.
*	*Xcue	*	*
*Xped	*	*	*
.	32g#	16g#Jk	.
*	*cue	*	*
.	32gg#JJJ	.	.
*	*Xcue	*	*
*ped	*	*	*
(>24dnLL	32f#LLL	8.f#L	.
*	*cue	*	*
.	32ff#	.	.
24F#	.	.	.
.	32cc#	.	.
24AJ	.	.	.
.	32ee	.	.
8DJ)	32ddn	.	.
.	32a	.	.
*	*Xcue	*	*
*Xped	*	*	*
.	32f#	16f#Jk	.
*	*cue	*	*
.	32ff#JJJ	.	.
*	*Xcue	*	*
*ped	*	*	*
(>24c#LL	32eLLL	8.eL	.
*	*cue	*	*
.	32ee	.	.
24E	.	.	.
.	32b	.	.
24AJ	.	.	.
.	32dd	.	.
8AAJ)	32cc#	.	.
.	32a	.	.
*	*Xcue	*	*
*Xped	*	*	*
.	32e	16eJk	.
*	*cue	*	*
.	32eeJJJ	.	]
*	*Xcue	*	*
*ped	*	*	*
(>24BLL	32dLLL	8.dL	.
*	*cue	*	*
.	32dd	.	.
24D	.	.	.
.	32a	.	.
24GnJ	.	.	.
.	32cc#	.	.
8BBJ)	32b	.	.
.	32gn	.	.
*	*Xcue	*	*
*Xped	*	*	*
.	32d	16dJk	.
*	*cue	*	*
.	32ddJJJ)	.	.
*	*Xcue	*	*
=25	=25	=25	=25
*ped	*	*	*
(<24A^>LL	(>32c#LLL	8.c#L	.
*	*cue	*	*
.	32cc#	.	.
24AA	.	.	.
.	32g#X	.	.
24C#J	.	.	.
.	32b	.	.
8CC#J)	32a	.	.
.	32f#	.	.
*	*Xcue	*	*
.	32c#	16c#Jk	.
*	*cue	*	*
.	32cc#JJJ	.	.
*	*Xcue	*	*
(<24A^>LL	32c#LLL	8.c#L	.
*	*cue	*	*
.	32cc#	.	.
24AA	.	.	.
.	32g#	.	.
24C#J	.	.	.
.	32b	.	.
8CC#J)	32a	.	.
.	32f#	.	.
*	*Xcue	*	*
*Xped	*	*	*
.	32c#	16c#Jk	.
*	*cue	*	*
.	32cc#JJJ	.	.
*	*Xcue	*	*
*ped	*	*	*
(<24G#^>LL	32c#LLL	8.c#L	.
*	*cue	*	*
.	32cc#	.	.
24AA	.	.	.
.	32g#	.	.
24C#J	.	.	.
.	32b	.	.
8CC#J)	32a	.	.
.	32f#	.	.
*	*Xcue	*	*
*Xped	*	*	*
.	32c#	16c#Jk	.
*	*cue	*	*
.	32cc#JJJ	.	.
*	*Xcue	*	*
*ped	*	*	*
(<24F#^>LL	32c#LLL	8.c#L	.
*	*cue	*	*
.	32cc#	.	.
24AA	.	.	.
.	32g#	.	.
24C#J	.	.	.
.	32b	.	.
8CC#J)	32a	.	.
.	32f#	.	.
*	*Xcue	*	*
*Xped	*	*	*
.	32c#	16c#Jk	.
*	*cue	*	*
.	32cc#JJJ)	.	.
*	*Xcue	*	*
!!LO:LB:g=original
=26	=26	=26	=26
*ped	*	*	*
(<24F#^>LL	(>32c#LLL	8.c#L	.
*	*cue	*	*
.	32cc#	.	.
24GG#	.	.	.
.	32f##X	.	.
24C#J	.	.	.
.	32a	.	.
8CC#J)	32g#	.	.
.	32f#X	.	.
*	*Xcue	*	*
.	32c#	16c#Jk	.
*	*cue	*	*
.	32cc#JJJ	.	.
*	*Xcue	*	*
(<24F#^>LL	32c#LLL	8.c#L	.
*	*cue	*	*
.	32cc#	.	.
24GG#	.	.	.
.	32f##X	.	.
24C#J	.	.	.
.	32a	.	.
8CC#J)	32g#	.	.
.	32f#X	.	.
*	*Xcue	*	*
*Xped	*	*	*
.	32c#	16c#Jk	.
*	*cue	*	*
.	32cc#JJJ	.	.
*	*Xcue	*	*
*ped	*	*	*
(<24E#X^>LL	32c#LLL	8.c#L	.
*	*cue	*	*
.	32cc#	.	.
24GG#	.	.	.
.	32f##X	.	.
24C#J	.	.	.
.	32a	.	.
8CC#J)	32g#	.	.
.	32e#X	.	.
*	*Xcue	*	*
.	32c#	16c#Jk	.
*	*cue	*	*
.	32cc#JJJ	.	.
*	*Xcue	*	*
(<24E#^>LL	32c#LLL	8.c#L	.
*	*cue	*	*
.	32cc#	.	.
24GG#	.	.	.
.	32f##	.	.
24C#J	.	.	.
.	32a	.	.
8CC#J)	32g#	.	.
.	32e#	.	.
*	*Xcue	*	*
*Xped	*	*	*
.	32c#	16c#Jk	.
*	*cue	*	*
.	32cc#JJJ)	.	.
*	*Xcue	*	*
=27	=27	=27	=27
*ped	*	*	*
!	!	!	!LO:DY:rj
(>24ALL	(>32c#LLL	8.c#L	p
*	*cue	*	*
.	32cc#	.	.
24C#	.	.	.
.	32g#	.	.
24F#J	.	.	.
.	32b	.	.
8FF#J)	32a	.	.
.	32f#	.	.
*	*Xcue	*	*
.	32c#	16c#Jk	.
*	*cue	*	*
.	32cc#JJJ	.	.
*	*Xcue	*	*
(>24ALL	32c#LLL	8.c#L	.
*	*cue	*	*
.	32cc#	.	.
24C#	.	.	.
.	32g#	.	.
24F#J	.	.	.
.	32b	.	.
8FF#J)	32a	.	.
.	32f#	.	.
*	*Xcue	*	*
.	32c#	16c#Jk	.
*	*cue	*	*
.	32cc#JJJ	.	.
*	*Xcue	*	*
(>24ALL	32c#LLL	8.c#L	.
*	*cue	*	*
.	32cc#	.	.
24C#	.	.	.
.	32g#	.	.
24F#J	.	.	.
.	32b	.	.
8FF#J)	32a	.	.
.	32f#	.	.
*	*Xcue	*	*
.	32c#	16c#Jk	.
*	*cue	*	*
.	32cc#JJJ	.	.
*	*Xcue	*	*
(>24ALL	32c#LLL	8.c#L	.
*	*cue	*	*
.	32cc#	.	.
24C#	.	.	.
.	32g#	.	.
24F#J	.	.	.
.	32b	.	.
8FF#J)	32a	.	.
.	32f#	.	.
*	*Xcue	*	*
*Xped	*	*	*
.	32c#	16c#Jk	.
*	*cue	*	*
.	32cc#JJJ)	.	.
*	*Xcue	*	*
!!LO:LB:g=original
=28	=28	=28	=28
*ped	*	*	*
(<24F#LL	(>32dLLL	8.dL	.
*	*cue	*	*
.	32dd	.	.
24FF#	.	.	.
.	32a#	.	.
24BBJ	.	.	.
.	32cc#	.	.
8BBBJ)	32b	.	.
.	32f#	.	.
*	*Xcue	*	*
.	32d	16dJk	.
*	*cue	*	*
.	32ddJJJ	.	.
*	*Xcue	*	*
(<24F#LL	32dLLL	8.dL	<
*	*cue	*	*
.	32dd	.	.
24FF#	.	.	.
.	32a#	.	.
24BBJ	.	.	.
.	32cc#	.	.
8BBBJ)	32b	.	.
.	32f#	.	.
*	*Xcue	*	*
.	32d	16dJk	.
*	*cue	*	*
.	32ddJJJ	.	.
*	*Xcue	*	*
(<24F#LL	32dLLL	8.dL	.
*	*cue	*	*
.	32dd	.	.
24FF#	.	.	.
.	32a#	.	.
24BBJ	.	.	.
.	32cc#	.	.
8BBBJ)	32b	.	.
.	32f#	.	.
*	*Xcue	*	*
.	32d	16dJk	[
*	*cue	*	*
.	32ddJJJ	.	>
*	*Xcue	*	*
(<24F#LL	32f#LLL	8.f#L	.
*	*cue	*	*
.	32ff#	.	.
24FF#	.	.	.
.	32a#	.	.
24BBJ	.	.	.
.	32cc#	.	.
8BBBJ)	32b	.	.
.	32f#	.	.
*	*Xcue	*	*
.	32d	16dJk	.
*	*cue	*	*
*Xped	*	*	*
.	32ddJJJ)	.	]
*	*Xcue	*	*
=29	=29	=29	=29
*ped	*	*	*
!	!	!	!LO:DY:rj
(>24A#XLL	(>32c#LLL	8.c#L	pp
*	*cue	*	*
.	32cc#	.	.
24C#	.	.	.
.	32g#	.	.
24F#J	.	.	.
.	32b	.	.
8FF#J)	32a#X	.	.
.	32f#	.	.
*	*Xcue	*	*
.	32c#	16c#Jk	.
*	*cue	*	*
.	32cc#JJJ	.	.
*	*Xcue	*	*
(>24A#LL	32c#LLL	8.c#L	.
*	*cue	*	*
.	32cc#	.	.
24C#	.	.	.
.	32g#	.	.
24F#J	.	.	.
.	32b	.	.
8FF#J)	32a#	.	.
.	32f#	.	.
*	*Xcue	*	*
.	32c#	16c#Jk	.
*	*cue	*	*
.	32cc#JJJ	.	.
*	*Xcue	*	*
(>24A#LL	32c#LLL	8.c#L	.
*	*cue	*	*
.	32cc#	.	.
24C#	.	.	.
.	32g#	.	.
24F#J	.	.	.
.	32b	.	.
8FF#J)	32a#	.	.
.	32f#	.	.
*	*Xcue	*	*
.	32c#	16c#Jk	.
*	*cue	*	*
.	32cc#JJJ	.	.
*	*Xcue	*	*
(>24A#LL	32c#LLL	8.c#L	.
*	*cue	*	*
.	32cc#	.	.
24C#	.	.	.
.	32g#	.	.
24F#J	.	.	.
.	32b	.	.
8FF#J)	32a#	.	.
.	32f#	.	.
*	*Xcue	*	*
*Xped	*	*	*
.	32c#	16c#Jk	.
*	*cue	*	*
.	32cc#JJJ)	.	.
*	*Xcue	*	*
!!LO:LB:g=original
=30	=30	=30	=30
*ped	*	*	*
(<24F#LL	(>32d#XLLL	8.d#XL	.
*	*cue	*	*
.	32dd	.	.
24FF#	.	.	.
.	32a#X	.	.
24BBJ	.	.	.
.	32cc#	.	.
8BBBJ)	32b	.	.
.	32f#	.	.
*	*Xcue	*	*
.	32d#	16d#Jk	.
*	*cue	*	*
.	32ddJJJ	.	<
*	*Xcue	*	*
(<24F#LL	32d#LLL	8.d#L	.
*	*cue	*	*
.	32dd	.	.
24FF#	.	.	.
.	32a#	.	.
24BBJ	.	.	.
.	32cc#	.	.
8BBBJ)	32b	.	.
.	32f#	.	.
*	*Xcue	*	*
.	32d#	16d#Jk	.
*	*cue	*	*
.	32ddJJJ	.	.
*	*Xcue	*	*
(<24F#LL	32d#LLL	8.d#L	.
*	*cue	*	*
.	32dd	.	.
24FF#	.	.	.
.	32a#	.	.
24BBJ	.	.	.
.	32cc#	.	.
8BBBJ)	32b	.	.
.	32f#	.	.
*	*Xcue	*	*
.	32d#	16d#Jk	.
*	*cue	*	*
.	32ddJJJ	.	[
*	*Xcue	*	*
(<24F#LL	32f#LLL	8.f#L	>
*	*cue	*	*
.	32ff#	.	.
24FF#	.	.	.
.	32a#	.	.
24BBJ	.	.	.
.	32cc#	.	.
8BBBJ)	32b	.	.
.	32f#	.	.
*	*Xcue	*	*
.	32d#	16d#Jk	.
*Xped	*	*	*
*	*cue	*	*
.	32ddJJJ)	.	]
*	*Xcue	*	*
=31	=31	=31	=31
*ped	*	*	*
(>24A#XLL	(>32c#LLL	8.c#L	.
*	*cue	*	*
.	32cc#	.	.
24C#	.	.	.
.	32g#	.	.
24F#J	.	.	.
.	32b	.	.
8FF#J)	32a#	.	.
.	32f#	.	.
*	*Xcue	*	*
.	32c#	16c#Jk	.
*	*cue	*	*
.	32cc#JJJ	.	.
*	*Xcue	*	*
(>24A#LL	32c#LLL	8.c#L	.
*	*cue	*	*
.	32cc#	.	.
24C#	.	.	.
.	32g#	.	.
24F#J	.	.	.
.	32b	.	.
8FF#J)	32a#	.	.
.	32f#	.	.
*	*Xcue	*	*
.	32c#	16c#Jk	.
*	*cue	*	*
.	32cc#JJJ	.	.
*	*Xcue	*	*
(>24A#LL	32c#LLL	8.c#L	<
*	*cue	*	*
.	32cc#	.	.
24C#	.	.	.
.	32g#	.	.
24F#J	.	.	.
.	32b	.	.
8FF#J)	32a#	.	.
.	32f#	.	.
*	*Xcue	*	*
.	32c#	16c#Jk	.
*	*cue	*	*
.	32cc#JJJ	.	.
*	*Xcue	*	*
(>24A#LL	32c#LLL	8.c#L	.
*	*cue	*	*
.	32cc#	.	.
24C#	.	.	.
.	32g#	.	.
24F#J	.	.	.
.	32b	.	.
8FF#J)	32a#	.	.
.	32f#	.	.
*	*Xcue	*	*
*Xped	*	*	*
.	32c#	16c#Jk	.
*	*cue	*	*
.	32cc#JJJ)	.	[
*	*Xcue	*	*
!!LO:LB:g=original
=32	=32	=32	=32
*ped	*	*	*
(>24AnLL	(>32c#LLL	8.c#L	.
*	*cue	*	*
.	32cc#	.	.
24C#	.	.	.
.	32g#	.	.
24F#J	.	.	.
.	32b	.	.
8FF#J)	32an	.	.
.	32f#	.	.
*	*Xcue	*	*
.	32c#	16c#Jk	.
*	*cue	*	*
.	32cc#JJJ	.	.
*	*Xcue	*	*
(>24ALL	32c#LLL	8.c#L	>
*	*cue	*	*
.	32cc#	.	.
24C#	.	.	.
.	32g#	.	.
24F#J	.	.	.
.	32b	.	.
8FF#J)	32a	.	.
.	32f#	.	.
*	*Xcue	*	*
.	32c#	16c#Jk	.
*	*cue	*	*
.	32cc#JJJ	.	.
*	*Xcue	*	*
(>24ALL	32c#LLL	8.c#L	.
*	*cue	*	*
.	32cc#	.	.
24C#	.	.	.
.	32g#	.	.
24F#J	.	.	.
.	32b	.	.
8FF#J)	32a	.	.
.	32f#	.	.
*	*Xcue	*	*
.	32c#	16c#Jk	.
*	*cue	*	*
.	32cc#JJJ	.	.
*	*Xcue	*	*
(>24ALL	32c#LLL	8.c#L	.
*	*cue	*	*
.	32cc#	.	.
24C#	.	.	.
.	32g#	.	.
24F#J	.	.	.
.	32b	.	.
8FF#J)	32a	.	.
.	32f#	.	.
*	*Xcue	*	*
.	32c#	16c#Jk	]
*	*cue	*	*
*Xped	*	*	*
.	32cc#JJJ	.	.
*	*Xcue	*	*
*	*v	*v	*
=33	=33	=33
2A 2E 2AA	2cc# 2e 2c#	>
4Gn 4BB	4b 4gn 4d	.
4G#X 4C#	4e#X 4c# 4B)	]
=34	=34	=34
.	4qqe#X/:	.
1A::;< 1C#:: 1FF#::	1f#::;> 1c#::	.
==	==	==
*-	*-	*-
!!title: @{OTL}; @{OPS} @{ONM} publisher: @{PPR}
!!!RDF**kern: > = above
!!!RDF**kern: < = below
!!!RDF**kern: N = linked
!!!ENC: Mateusz Mrugas
!!!END: 2019-04-27
!!!EED: Jędrzej Mróz
!!!EST: 2018-05-06
!!!EED2: Jędrzej Mróz
!!!EST: 2020-04-21
!!!rism-genre: Prelude
!!!rism-key: F-sharp minor
!!!rism-opus: op. 28, no. 8
!!!rism-title: Prelude in F-sharp minor op. 28, no. 8
!!!rism-permalink: https://opac.rism.info/search?id=1001065072&View=rism
!!!rism-773a-OPR: 1001065063
!!!rism-parent-permalink: https://opac.rism.info/search?id=1001065063&View=rism
